X:1
T:Grande Fantaisie Triomphale sur l'hymne national brésilien
T:Grande Fantaisie Triomphale sur l'hymne national brésilien
T:L. M. Gottschalk
C:L. M. Gottschalk
%%score { 1 | ( 2 5 ) | ( 3 4 ) }
L:1/8
Q:1/4=88
M:4/4
K:Db
V:1 treble nm="Piano" snm="Pno."
V:2 treble 
V:5 treble 
V:3 bass 
V:4 bass 
V:1
"^Maestoso ( M. M.)" z8 | z8 | z8 | z8 | z8!p! | z8 | z8 | z8 | z8 | z8 | z8 | z8 | z8 | z8 | %14
 [=dac']"_vivamente"!8va(!=d''/4c''/4_c''/4b'/4 =a'/4_a'/4f'/4=d'/4!8va)!(7:4:7c'/4_c'/4b/4=a/4_a/4g/4d/4 b'2 [dab]2 | %15
 z8 | %16
 [=gd'f']!8va(!=g''/4f''/4_f''/4e''/4 =d''/4_d''/4b'/4g'/4!8va)!(7:4:7_f'/4f'/4e'/4=d'/4_d'/4b/4_g/4!8va(! e''2!8va)! [=gd'e']2 | %17
 z8 | z8 | z8 | z8 | z8 | %22
 [=dac']!8va(!=d''/4c''/4_c''/4b'/4 =a'/4_a'/4f'/4=d'/4!8va)!(7:4:7c'/4_c'/4b/4=a/4_a/4f/4d/4 b'2 [dab]2 | %23
 z8 | %24
 [=gd'f']!8va(!=g''/4f''/4_f''/4e''/4 =d''/4_d''/4b'/4=g'/4!8va)!(7:4:7f'/4_f'/4e'/4=d'/4_d'/4b/4g/4!8va(! e''2!8va)! [gd'e']2 | %25
 z8 | z8 | z8 | z8 | z8 | z8 | z8 | z8 | z8 | z8 | z8 | z8 | z8 | z8 | z8 | z8 | z8 | %42
[Q:1/4=126]"^(M. M.)" z8 | z8 | z8 | z8 | z8 | z8 | z8 | z8 | z8 | z8 | z8 | z8 | z8 | z8 | %56
[Q:1/4=116]"^(M.M.)" z8 | z8 | z8 | z8 | z8 | z8 | z8 | z8 |"_crescendo" z8 | z8 | z8 | z8 | z8 | %69
 z8 | z8 | z6 | z2 | z8 | z8 | z8 | z8 | z8 | z8 | z8 | z8 | z8 | z8 | z8 | z8 | z8 | z8 | z8 | %88
 z8 | z8 | z8 | z8 | z8 | z8 | z8 | z8 | z8 | z8 | z8 | z8 | z8 | z8 | z8 | z8 | z8 | z8 | z8 | %107
 z8 | z8 | z8 | z8 | z8 | z8 | z8 | z8 | z8 | z8 | z8 | z8 | z8 | z8 | z8 || %122
[K:A][Q:1/4=120]"^(M. M. )" z8 | z8 | z8 | z8 | z8 | z8 | z8 | z8 | z8 | z8 | z8 | z8 | z8 | z8 | %136
 z8 | z8 | z8 | z8 | z8 | z8 | z8 | z8 | z8 | z8 | z8 | z8 | z8 | z8 | z8 | z8 | z8 | z8 | z8 | %155
 z8 | z8 | z8 | z8 | z8 | z8 | z8 | z8 | z8 | z8 | z8 | z8 | z8 | z8 | z8 | z8 | z8 | z8 | z8 | %174
 z8 | z8 | z8 | z8 | z8 ||[K:F#][Q:1/4=106]"^(M. M.)" z8 | z8 | z8 | z8 | z8 | z8 | z8 | z8 | z8 | %188
 z8 | z8 | z8 | z8 | z8 | z8 | z8 | z8 | z8 | z8 | z8 | z8 | z8 | z8 |[K:Db] z8!mf! | z8 | z8 | %205
 z8 | z8 | z8 | z8 | z8 | z8 | z8 | z8 | z8 | z8 | z8 | z8 | z8 | z8 | z8 | z8 | z8 | z8 | z8 | %224
 z8 | z8 | z8 | z8 | z8 | z8 | z8 | z8 | z8 | z8 | z8 | z8 | z8 | z8 | z8 | z8 | z8 | z8 | z8 | %243
 z8 |] %244
V:2
!ff!"^INTRODUÇÃO\n  (FANTASIA)" z2 z2 z2 [A,A]2 | [DFAd]2- [DFAd]>[Cc] [DFAd]>[Ee] [Fdf]>[Gg] | %2
 [Ada]6 [D=Gd]2 | [Fdf]4 [EAde]2"^Grandioso." [Acea]2 | [DFd]2 z2 z2!mp! A2 | %5
 d2-"^ben cantato" d>c d>e f>g | =g2 a4 A2 | d2- d>c e>d g>f | %8
 [Adf]2"^con express.\n" [=Gde]4 [GB]2 | [=Gde]2- [Gde]>!<(!=d [Gde]>f [de=g]>a | %10
 [d=g=a]!<)!b [dge']2!<(! =AB!mf! [de]/!<)!{[gb]c'}[gb]/[^fa]/"_cresc."[gb]/ | %11
!8va(!{[b'd'']e''[b'd'']} d'[c'a'c''][c'a'c''][bg'b']{[g'b']c''[g'b']} b[ac'g'a'][ac'g'a'][ec'e'] | %12
{/[g-d'-=e']} [gd'_e'b']4{/[fd']-} [fd'a']2!8va)! f2 | [=Aeg]>f [A=e]>f [Ae]>f [_e=ad']>c' | %14
 [=dac']2 [dab]2 z2 [dab]2 |!<(! [=dac']>b [d=a]>b [da]>b [_a=d'a']>=g'!<)! | %16
 [=gd'f']2 [gd'e']2 z2 [gd'e']2 |!8va(! [=gd'f']>e' [g=d']>e' [gd']>e' [g'_d'']>c'' | %18
 [c'g'c'']>[bg'b'] [bg'b']>[__bg'__b'] [bg'b']>[ag'a'] [ag'a']>!8va)![Acga] | %19
 [Acga]>[gbg'] [gbg']>[faf'] [faf']>[=e=g=e'] [_e_g_e']>[ga] | %20
 [fa]>[fae'] [fae']>[fa=d'] [fa_d']>[df] [cf]>[Bf] |!<(! [=Aeg]>f [A=e]>f [Ae]>f!<)! [_e=ad']>c' | %22
 [=dac']2 [dab]2 z2 [dab]2 |!<(! [=dac']>b [d=a]>b [da]>b!<)! [_a=d'a']>=g' | %24
 [=gd'f']2 [gd'e']2 z2 [gd'e']2 |!8va(! [=gd'f']>e' [g=d']>e' [gd']>e' [g'd'']>c'' | %26
!f! [c'g'c'']>[bg'b'] [bg'b']>[__bg'__b'] [bg'b']>[ag'a'] [ag'a']>!8va)!!mp![Acga] | %27
 [Acga]>[gbg'] [gbg']>[faf'] [faf']>"^dim."[=e=g=e'] [_e_g_e']>[ga] | %28
 [fa]>[fad'] [fad']>!8va(![f'a'] [f'a']>[f'a'd''] [f'a'd'']>!8va)!d | %29
 [=Ad]4!8va(! z{[Ac]^d} [Ac]!8va)![A_c][A=c] | [Af]4!8va(! z2 [Ad]2!8va)! | %31
 [=Ad]4!8va(! z{[Ac]^d} [Ac]!8va)![A_c][A=c] | [Af]4!8va(! z2 [Ad]2!8va)! | %33
 [fa]4!8va(! x2!8va)! [Ad]2 | [fd']4!8va(! x2!8va)! [Ad]2 | [af']4!8va(! x2!8va)! [Adf]2 | %36
!8va(! (6:4:6[d'f'd'']/!8va)!"^una corda"F,/A,/D/F/A/!p! (6:4:6d/f/a/d'/!8va(!f'/a'/ (6:4:6d''/a'/f'/!8va)!d'/a/f/ (6:4:6d/A/F/D/A,/F,/ | %37
 (6:4:6z/ z/ z/ D/F/A/!<(! (6:4:6d/f/a/d'/!8va(!f'/a'/!<)!!>(! (6:4:6d''/a'/f'/!8va)!d'/a/f/!>)! (6:4:6d/A/F/D/ z/ z/ | %38
 (6:4:6z/ z/ z/ D/F/A/ (6:4:6d/f/a/d'/!8va(!!<(!f'/a'/ (6:4:6d''/a'/f'/!8va)!d'/a/f/ (6:4:6d/f/a/d'/!8va(!f'/a'/ | %39
 (6:4:6d''/a'/f'/!8va)!d'/a/f/ (6:4:6d/f/a/d'/!8va(!f'/a'/ (6:4:6d''/a'/f'/!8va)!d'/a/f/ (6:4:6d/f/a/d'/!8va(!f'/a'/!<)! | %40
 (6:4:6d''/a'/f'/d'/f'/a'/ (6:4:6d''/a'/f'/d'/f'/a'/ (6:4:6d''/a'/f'/d'/f'/a'/ (6:4:6d''/a'/f'/d'/f'/a'/ | %41
 (6:4:6d''/a'/f'/d'/f'/a'/ (6:4:6d''/a'/f'/d'/f'/a'/ (6:4:6d''/a'/f'/!8va)!d'/!pp!a/f/ (6:4:6d/A/F/D/ z/ z/ | %42
 z8 |!mp! [A,CGA]2[K:bass] z/ __B,,/ z/ B,,/ z4 | z2 z/ __B,,/ z/ B,,/ z/ z/ z[K:treble] [D_F=G]2 | %45
 [CEA]2[K:bass] z/ __B,,/ z/ B,,/ z2[K:treble]"_cresc." [CG__Bc]2 | %46
 [D_FAd]2[K:bass] z/ __B,,/ z/ B,,/ z2[K:treble] [=Gd_f=g]2 | %47
 [Acea]2[K:bass] z/ __B,,/ z/ B,,/ z2[K:treble] [cg__bc']2 | %48
!ff! [d_fad']2[K:bass] z/ __B,,/ z/ B,,/ z2[K:treble] [=gd'_f'=g']2 | %49
 [ac'e'a']2 z/[K:bass] __B,,/ z/ B,,/ z2[K:treble]!8va(! [c'g'__b'c'']2 | %50
 [d'_f'a'd'']2!8va)![K:bass] z/ __B,,/ z/ B,,/ z2[K:treble]!8va(! [=g'd''_f''=g'']2 | %51
!ff! [a'c''e''a'']!>(!!>![c''e'']/[a'a'']/!8va)!!>)! z"^Con inpeto"!>(! [c'e']/[aa']/!>)! z!>(! [ce]/[Aa]/!>)! z [CE]/[A,A]/ | %52
 z!8va(! !>![a'c'']/[a'a'']/!8va)! z !>![c'e']/[aa']/ z [ce]/[Aa]/ z !>![CE]/[A,A]/ | %53
 z!8va(! !tenuto![c''e'']/[a'a'']/!8va)! z !tenuto![ac']/[af']/ z !tenuto![ce]/[Aa]/ z !tenuto![CE]/[A,A]/ | %54
 z2"^Grandioso"!<(! [CEA]2 [^C=E=A]2 [^A,CE^F^A]2!<)! | %55
 [=B,^D^F=B]2!<(! z2 [^C=E=G=A^c]2!<)!!ff! [_E_G_A=ce]>!^!A, | %56
"^Hymno. bem rhythmado"!mp! z2 z3/2 E/ [A,DF]>E [A,DF]>G | =G3 A/F/ z4 | D>C E>D [B,F]>=E [B,G]>F | %59
 F2 E4 B,2 | E>=D E>F =G>F G>A | [D=G]2 [E__Ae]2 [EGe]{[GB]c}[GB][G=A][GB] | d>c c>B B>A =D>E | %63
 [=EB]4 [FA]2 [Adf]2 | g>f =e>f e>f d'>c' | [=dac']2 [da]2 [da]2 [dab]2 | %66
 [ac']>b =a>b a>b!8va(! [=d'a']>=g'!8va)! | [=gd'f']2 !>![egd'e']4 [egd'e']2 | %68
!f! [f=gd'f']>[ege'] [=d=d']>[ege'] [dgd']>e'!8va(! [_d'=g'd'']>[c'c''] | %69
 [c'f'c'']>[bg'b']"^Con forza" [bg'b']>[__bg'__b'] [bg'b']>[ag'a'] [ag'a']>!8va)!!>(![Acga] | %70
 [Acga]>!>)!!<(![gbg'] [gbg']>[fad']!<)!!>(! [faf']>[ege'] [ege']>[Aa]!>)! | %71
 [Afa]>[dfd'] [dfd']>!8va(![d'f'd'']!ff! [d'f'd'']2!8va)! | %72
 (7:4:7z/"^Con pompa" [B,B]/ z/ [B,B]/ z/ [=G,=G]/[A,A]/ | %73
 [DFd]2 (7:4:7z/ [Ee]/ z/ [Ee]/ z/ [Cc]/[Dd]/ [Fdf]2 (7:4:7z/ [Gdg]/ z/ [Gdg]/ z/ [=E=e]/[Ff]/ | %74
 [Adfa]2 !^![dfad']4"^martellato"!<(! [=A,=A]/[B,B]/ z | %75
 [DFAd]>[Cc] [EAe]>[Dd] [Fdf]>[Ee] [Gdg]>[Ff] | %76
 [=DA=B=d]2!<)! [EAce]4!ff! (7:4:7z/ [Cc]/ z/ [Cc]/ z/ [=A,=A]/[B,_B]/ | %77
 [Ee]2 (7:4:7z/ [FBf]/ z/ [FBf]/ z/ [=D=d]/[Ee]/ [GBg]2 (7:4:7z/ [Aa]/ z/ [Aa]/ z/ [Ff]/[Gg]/ | %78
 [Bgb]2 !^![egbe']4 [e=gbe'][dd'] |{/e'} [dbd']>[cac'] [cac']>[Bgb]{/c'} [Bgb]>[Afa] [Afa]>[Geg] | %80
 [=Ed=e]2 [fd'f']4 (7:4:7z/ [B,B]/ z/ [B,B]/ z/ [=G,=G]/[A,A]/ | %81
!ff!!<(! [DAd] z [=G,=G]/[A,A]/ z!<)! [Ff]2 (7:4:7z/ [Ee]/ z/ [Ee]/ z/ [Cc]/[Dd]/ | %82
 !tenuto![B,GB]!<(! z [=A,=A]/[B,B]/ z!<)! !tenuto![GBg]2 (7:4:7z/ [FBf]/ z/ [FBf]/ z/ [=D=d]/[Ee]/ | %83
 !tenuto![CEAc] z [=B,=B]/[Cc]/ z !tenuto![Aa]2 (7:4:7z/!<(! [Gcg]/ z/ [Gcg]/ z/ [=E=e]/[Ff]/ | %84
 [DBd]2 (7:4:7z/ [Ada]/ z/ [Ada]/ z/ [Ff]/[Gg]/ [EAe]2 (7:4:7z/ [Beb]/ z/ [Beb]/ z/ [=G=g]/[Aa]/ | %85
 [Fdf]2!<)! !^![dfad']4 [c=ec'][Bb] | [Adfa]2 [ad'f'a']2!8va(! [a'c''e''g''a'']2!8va)! [Agac']2 | %87
!ff! [dfad']2 z4 [Adfa]2 | %88
 [dfad']/[dfad']/ z/ [ceac']/ [dfad']/[dfad']/ z/ [eae']/ [fd'f']/[fd'f']/ z/ [eae']/ [fd'f']/[fd'f']/ z/ [ge'g']/ | %89
 [=gd'f'=g']/[gd'f'g']/ z/ [gd'f'g']/ [ad'f'a']/[ad'f'a']/ z/ [ff']/ [dfad']/[dfad']/ z/ [dfad']/ [dfad']/[dfad']/ z/ [Aa]/ | %90
 [dfad']/[dfad']/ z/ [cc']/ [eae']/[eae']/ z/ [dad']/ [faf']/[faf']/ z/ [eae']/ [gd'g']/[gd'g']/ z/ [fd'f']/ | %91
 [=da=b=d'][dabd']/[dabd']/ z [dabd']/[dabd']/ z [eac'e'] z [Bdf_b] | %92
!ff! [egbe']/[egbe']/ z/ [=dgb=d']/ [egbe']/[egbe']/ z/ [fbf']/!8va(! [gbe'g']/[gbe'g']/ z/ [fbf']/ [gbe'g']/[gbe'g']/ z/ [ae'a']/!8va)! | %93
!8va(! [=ae'=g'a']/[ae'g'a']/ z/ [ae'g'a']/ [be'g'b']/[be'g'b']/ z/ [gbe'g']/!8va)! [e=gbe']/[egbe']/ z/ [egbe']/ [egbe']/[egbe']/ z/ [Bb]/ | %94
 [eac'e']/[eac'e']/ z/ [=dac'd']/ [fac'f']/[fac'f']/ z/ [eac'e']/ [gac'g']/[gac'g']/ z/ [fac'f']/ [ac'a']/[ac'a']/ z/ [gc'g']/ | %95
 [=ed'=e'][ebd'e']/[ebd'e']/ z [ebd'e']/[ebd'e']/ z [fad'f'] z [fad'f'] | %96
 [gc'e'g']>[Ff-] [c=e]/[Ff]/ z/ [Ff-]/ [ce]/[Ff]/ z/ [Ff-]/ [ce]/[Ff]/ z/ [ff']/ | %97
 [fb=d'f']/[fbd'f']/ z/ [ff']/!8va(! [bd'b']/[bd'b']/ z/ [=ad'=a']/ [_ae'_a']/[ae'a']/ z/ [gbe'g']/!8va)! [f__bf']/[fbf']/ z/ [ebe']/ | %98
 [eae']/[eae']/ z/ [cad']/ [cac']/[cac']/ z/ [dad']/ [faf']/[faf']/ z/ [eae']/ [=da=d']/[dad']/ z/ [eae']/ | %99
 [=ed'=e'][ebd'e']/[ebd'e']/ z/ z/ [ebd'e']/[ebd'e']/ z [fad'f'] z [fad'f'] | %100
 [gc'e'g']>[Ff-] [c=e]/[Ff]/ z/ [Ff-]/ [ce]/[Ff]/ z/ [Ff-]/ [ce]/[Ff]/ z/ [ff']/ | %101
 [fbd'f']/[fbd'f']/ z/ [ff']/!8va(! [a=d'b']/[ad'b']/ z/ [=a_d'=a']/ [_ae'_a']/[ae'a']/ z/ [gbe'g']/!8va)! [f__bf']/[fbf']/ z/ [ebe']/ | %102
 [eae']/[eae']/ z/ [dad']/ [cac']/[cac']/ z/ [dad']/ [=da=d']/[dad']/ z/ [ee']/ [gag']/[gag']/ z/ [cgbc']/ | %103
 [dfad']2!8va(! [d'f'a'd'']2!8va)! D2!8va(! [a'd''a'']2!8va)! | %104
[K:bass] D,2[K:treble]!8va(! !fermata![d'f'a'd'']4!8va)! z2 | z4 z2!f!!8va(! a'2 | %106
"_scintillante" (6:4:6a'/b'/a'/f'/g'/=g'/ (6:4:6a'/b'/a'/f'/_g'/=g'/ (6:4:6a'/b'/a'/f'/_g'/=g'/ (6:4:6a'/=a'/b'/c''/b'/a'/ | %107
 (6:4:6a'/f''/e''/d''/c''/b'/"_rapido" (6:4:6a'/g'/f'/!8va)!e'/d'/c'/ (6:4:6b/a/g/f/e/d/ (6:4:6c/B/A/G/F/E/ | %108
 D"^sopra"(3d'/d'/d'/"_sotto" (3c'/c'/c'/(3b/b/b/ (3__b/b/b/(3a/a/a/ (3f/f/f/(3d/d/d/ | %109
 z"^sotto" (3c/c/c/"^sopra" (3d/d/d/(3=d/d/d/ (3e/e/e/(3c/c/c/ A2 | %110
!8va(! (6:4:6e''/f''/e''/c''/d''/=d''/ (6:4:6e''/f''/e''/c''/_d''/=d''/ (6:4:6e''/f''/e''/c''/_d''/=d''/ (6:4:6e''/=e''/f''/g''/=g''/a''/ | %111
 (6:4:6e''/g''/=a''/_a''/g''/e''/ (6:4:6c''/_c''/b'/=a'/_a'/g'/!8va)! (6:4:6e'/c'/_c'/b/=a/_a/ (6:4:6g/e/c/_c/B/=A/ | %112
 A"^sopra"(3e'/e'/e'/"_sotto" (3=d'/d'/d'/(3_d'/d'/d'/ (3c'/c'/c'/(3a/a/a/ (3g/g/g/(3e/e/e/ | %113
 z (3d'/d'/d'/ (3c'/c'/c'/(3b/b/b/ (3a/a/a/(3f'/f'/f'/ (3f/f/f/(3f/f/f/ | %114
 z (3f/f/f/ z (3f/f/f/ z"^sotto" (3f/f/f/ z"^sopra" (3e/e/e/ | %115
 z (3b/b/b/ z (3a/a/a/ z (3g/g/g/ z (3e/e/e/ | z (3d/d/d/ z (3d/d/d/ z (3e/e/e/ z (3e/e/e/ | %117
 z (3d'/d'/d'/ z (3b/b/b/ z (3f'/f'/f'/ z (3f/f/f/ | z (3f/f/f/ z (3f/f/f/ z (3f/f/f/ z (3e/e/e/ | %119
 z (3b/b/b/ z (3a/a/a/ z (3g/g/g/ z (3e/e/e/ | %120
 z (3d/d/d/ z (3d/d/d/ z"^sotto" (3=d/d/d/ z"^sopra" (3a/a/a/ | %121
 z"^sotto" (3f/f/f/ z"^sopra" (3d'/d'/d'/!8va(! d''2!8va)! z2 ||[K:A]!p!"^Preparação" z8 | z8 | %124
[K:bass] z2 z2 z z/ ^E,/ [E,G,]>[G,B,] | [G,B,]2 [F,A,]>"^un poco crés"[^E,G,] [E,G,]2 [G,C^E]2 | %126
 [B,CG]2 [A,CF]2 z z/ P[A,CF]/ [G,C^E][A,CF] |[K:treble] [CFA]2 [CFA]>[CFA] [^B,G]2 [G,B,F]2 | %128
 [G,C^E]2 z2 z z/[K:bass]!pp! ^E,/ [E,G,]>[G,B,] | [G,B,]2 [F,A,]>[^E,G,] [E,G,]2 [G,C^E]2 | %130
 [B,CG]2 [A,CF]2 z z/ P[A,CF]/ [G,C^E][A,CF] |[K:treble] [CFA]2 [CFA]>[CFA] [^B,G]2 [G,B,F]2 | %132
 [G,C^E]2[K:bass]"^Le changement de mains doit se faire sans interruption du trile" !trill(!TC,6 | %133
 C,8 | C,8 | C,8 | C,8 |!pp!!<(! C,8!<)! | C,8 | C,8 | C,8 | C,8 | C,8 | C,8 | %144
 !trill)!C,2 z2 z[K:treble] z/ [A,CF]/ [G,C^E]>[A,CF] | [CFA]2 [CFA]>[CFA] [B,G]2 [B,F]2 | %146
 [G,C^E]2 z2 z z/[K:bass] ^E,/ [E,G,]>[G,B,] | [G,B,]2 [F,A,]>[^E,G,] [E,G,]2 [F,B,]2 | %148
 [^E,G,]2 C2 z z/!ppp! !tenuto!E,/ !tenuto![E,G,]>!tenuto![G,B,] | %149
 !tenuto![G,B,]2 !tenuto![F,A,]>!tenuto![^E,G,] !tenuto![E,G,]2 !tenuto![F,B,]2 | %150
 !tenuto![^E,G,]2 !tenuto!C2 z2 C2 |[K:treble] F>^E F>G A>G A>B | ^B2- Bc/A/ F2 C2 | %153
 F>^E G>F A>G B>A | [B,^DEA]2 [B,DEG]2 z2 [B,C]2 | G>^^F G>A B>^A B>c | =e2- =ed/B/ [=EG]2 [B,C]2 | %157
 G>^^F A>G B>^A c>B | [FB]2 A2- A{F-G}[A,CF][G,C^E][A,CF] | A2 A>A G2 F2 | %160
 [G,C^E]2[K:bass] !trill(!TC,6 | C,8 | C,8 | C,8 | C,8 | C,8 | %166
 !trill)!!>!C,2!pp! z/4 D,/4 z/4 D,/4 z/4 D,/4 z/4 D,/4 z/4 D,/4 z/4 D,/4 z/4 D,/4 z/4 D,/4 z/4 D,/4 z/4 D,/4 z/4 D,/4 z/4 D,/4 | %167
 z/4 D,/4 z/4 D,/4 z/4 D,/4 z/4 D,/4 z/4 D,/4 z/4 D,/4 z/4 D,/4 z/4 D,/4 z/4 D,/4 z/4 D,/4 z/4 D,/4 z/4 D,/4 z/4 D,/4 z/4 D,/4 z/4 D,/4 z/4 D,/4 | %168
"^cresc." z/4 D,/4 z/4 D,/4 z/4 D,/4 z/4 D,/4 z/4 D,/4 z/4 D,/4 z/4 D,/4 z/4 D,/4 z/4 D,/4 z/4 D,/4 z/4 D,/4 z/4 D,/4 z/4 D,/4 z/4 D,/4 z/4 D,/4 z/4 D,/4 | %169
 z/4 D,/4 z/4 D,/4 z/4 D,/4 z/4 D,/4 z/4 D,/4 z/4 D,/4 z/4 D,/4 z/4 D,/4 z/4 D,/4 z/4 D,/4 z/4 D,/4 z/4 D,/4 z/4 D,/4 z/4 D,/4 z/4 D,/4 z/4 D,/4 | %170
 z/4 D,/4 z/4 D,/4 z/4 D,/4 z/4 D,/4 z/4 D,/4 z/4 D,/4 z/4 D,/4 z/4 D,/4 z/4 D,/4 z/4 D,/4 z/4 D,/4 z/4 D,/4 z/4 D,/4 z/4 D,/4 z/4 D,/4 z/4 D,/4 | %171
 z/4!fff! [D,G,]/4 z/4 [D,G,]/4 z/4 [D,G,]/4 z/4 [D,G,]/4 z/4 [D,G,]/4 z/4 [D,G,]/4 z/4 [D,G,]/4 z/4 [D,G,]/4 z/4 [D,A,]/4 z/4 [D,A,]/4 z/4 [D,A,]/4 z/4 [D,A,]/4 z/4 [D,A,]/4 z/4 [D,A,]/4 z/4 [D,A,]/4 z/4 [D,A,]/4 | %172
 z/4 [D,B,]/4 z/4 [D,B,]/4 z/4 [D,B,]/4 z/4 [D,B,]/4 z/4 [D,B,]/4 z/4 [D,B,]/4 z/4 [D,B,]/4 z/4 [D,B,]/4 z/4 [D,B,]/4 z/4 [D,B,]/4 z/4 [D,B,]/4 z/4 [D,B,]/4 z/4 [D,B,]/4 z/4 [D,B,]/4 z/4 [D,B,]/4 z/4 [D,B,]/4 | %173
 z/4 [D,G,]/4 z/4 [D,G,]/4 z/4 [D,G,]/4 z/4 [D,G,]/4 z/4 [D,G,]/4 z/4 [D,G,]/4 z/4 [D,G,]/4 z/4 [D,G,]/4 z/4 [D,A,]/4 z/4 [D,A,]/4 z/4 [D,A,]/4 z/4 [D,A,]/4 z/4 [D,A,]/4 z/4 [D,A,]/4 z/4 [D,A,]/4 z/4 [D,A,]/4 | %174
 z/4 [D,B,]/4 z/4 [D,B,]/4 z/4 [D,B,]/4 z/4 [D,B,]/4 z/4 [D,B,]/4 z/4 [D,B,]/4 z/4 [D,B,]/4 z/4 [D,B,]/4 z/4 [D,B,]/4 z/4 [D,B,]/4 z/4 [D,B,]/4 z/4 [D,B,]/4 z/4 [D,B,]/4 z/4 [D,B,]/4 z/4 [D,B,]/4 z/4 [D,B,]/4 | %175
 z/4 [D,G,]/4 z/4 [D,G,]/4 z/4 [D,G,]/4 z/4 [D,G,]/4 z/4 [D,G,]/4 z/4 [D,G,]/4 z/4 [D,G,]/4 z/4 [D,G,]/4 z/4 [D,A,]/4 z/4 [D,A,]/4 z/4 [D,A,]/4 z/4 [D,A,]/4 z/4 [D,A,]/4 z/4 [D,A,]/4 z/4 [D,A,]/4 z/4 [D,A,]/4 | %176
 z/4 [D,B,]/4 z/4 [D,B,]/4 z/4 [D,B,]/4 z/4 [D,B,]/4 z/4 [D,B,]/4 z/4 [D,B,]/4 z/4 [D,B,]/4 z/4 [D,B,]/4 z/4 [D,A,]/4 z/4 [D,A,]/4 z/4 [D,A,]/4 z/4 [D,A,]/4 z/4 [D,A,]/4 z/4 [D,A,]/4 z/4 [D,A,]/4 z/4 [D,A,]/4 | %177
 z/4 [D,G,]/4 z/4 [D,G,]/4 z/4 [D,G,]/4 z/4 [D,G,]/4 z/4 [D,G,]/4 z/4 [D,G,]/4 z/4 [D,G,]/4 z/4 [D,G,]/4 z/4 [D,G,]/4 z/4 [D,G,]/4 z/4 [D,G,]/4 z/4 [D,G,]/4 z/4 [D,G,]/4 z/4 [D,G,]/4 z/4 [D,G,]/4 z/4 [D,G,]/4 | %178
"^Con furia" z/!ff! C,/^B,,/C,/ D,/^D,/E,/^E,/ F,/=G,/^G,/A,/ ^A,/4B,/4^B,/4C/4D/4^D/4E/4^E/4 || %179
[K:F#][K:treble]!p! F>E F>G A>G A>B | ^B2- Bc/A/ [CF]2 [A,C]2 | F>E G>F A>G B>A | %182
 [A,C=E^^F]2 [B,C^E]2 z2 [B,C]2 | G>^^F G>A B>A B>c | =d2- d^d/B/ [EG]2 [B,C]2 | %185
 G>^^F G>A B>A c>B | [^B,F^^G]2 [CF]2 [CF]2 [CFA]2 | B>A ^^G>A ^G>A B>A | [D^^FA]2 d2 d>A B>G | %189
 G>F ^E>F A>G ^^F>G | [^B,F^^G]2 [CF]2 [CF]2 [CFA]2 | B>A ^^G>A G>A B>A | [D^^FA]2 d2- d>A B>G | %193
 G>F E>F A>G B>A | F8 | F8- | F8 | F8- | F8 | z8 | z8 | z8 | %202
[K:Db][K:bass]!p! z2 z/ __B,,/ z/ B,,/ z4 |"_cresc." z2 z/ __B,,/ z/ B,,/ A,,2[K:treble] [D_F=G]2 | %204
 [CEA]2[K:bass] z/ __B,,/ z/ B,,/ z2[K:treble] [CG__Bc]2 | %205
 [D_FAd]2[K:bass] z/ __B,,/ z/ B,,/ z2[K:treble] [=Gd_f=g]2 | %206
 [Acea]2[K:bass] z/ __B,,/ z/ B,,/ z2[K:treble] [cg__bc']2 | %207
 [d_fad']2[K:bass] z/ __B,,/ z/ B,,/ z2[K:treble]!ff! !^![=gd'_f'=g']2 | %208
 !^![ac'e'a']2[K:bass] z/ __B,,/ z/ B,,/ z2[K:treble]!8va(! [c'g'__b'c'']2 | %209
 [d'_f'a'd'']2!8va)![K:bass] z/ __B,,/ z/ B,,/ z2[K:treble]!8va(! !>![=g'd''_f''=g'']2 | %210
!fff! [a'c''e''a'']!>![c''e'']/[a'a'']/!8va)! z !>![c'e']/[aa']/ z !>![ce]/[Aa]/ z [CE]/!>![A,A]/ | %211
 z!8va(! !>![c''e'']/[a'a'']/!8va)! z [c'e']/[aa']/ z [ce]/[Aa]/ z [CE]/[A,A]/ | %212
 z!8va(! [c''e'']/[a'a'']/!8va)! z [c'e']/[aa']/ z [ce]/[Aa]/ z [CE]/[G,A]/ | %213
 z2"^Grandioso" [CEA]2 [^C=E=A]2 [^A,CE^F^A]2 | %214
 [=B,^D^F=B]2 z2 [^C=E=G=A^c]2"_Allargando" [_E_G_A=ce]2 | %215
"^a tempo marcatíssmo"!ff! [dfad']/[dfad']/ z/ [cfac']/ [dfad']/[dfad']/ z/ [eae']/ [fd'f']/[fd'f']/ z/ [eae']/ [fd'f']/[fd'f']/ z/ [ge'g']/ | %216
 [=gd'f'=g']/[gd'f'g']/ z/ [gd'f'g']/ [ad'f'a']/[ad'f'a']/ z/ [ff']/ [dfad']/[dfad']/ z/ [dfad']/ [dfad']/[dfad']/ z/ [Aa]/ | %217
 [dfad']/[dfad']/ z/ [cc']/ [eae']/[eae']/ z/ [dad']/ [faf']/[faf']/ z/ [eae']/ [gd'g']/[gd'g']/ z/ [fd'f']/ | %218
 [=da=b=d'][dabd']/[dabd']/ z [dabd']/[dabd']/ z [eac'e'] z [B=df_b] | %219
 [egbe']/[egbe']/ z/ [=dgb=d']/ [egbe']/[egbe']/ z/ [fbf']/!8va(! [gbe'g']/[gbe'g']/ z/ [fbf']/ [gbe'g']/[gbe'g']/ z/ [ae'a']/ | %220
 [=ae'g'=a']/[ae'g'a']/ z/ [ae'g'a']/ [be'g'b']/[be'g'b']/ z/ [gbe'g']/!8va)! [egbe']/[egbe']/ z/ [egbe']/ [egbe']/[egbe']/ z/ [Bb]/ | %221
 [eac'e']/[eac'e']/ z/ [=dac'=d']/ [fac'f']/[fac'f']/ z/ [eac'e']/ [gac'g']/[gac'g']/ z/ [fac'f']/ [ac'a']/[ac'a']/ z/ [gc'g']/ | %222
 [=ed'=e']!>(![ed'e']/[ed'e']/ z [ebd'e']/[ebd'e']/!>)! z [fbf'a'] z [fad'f'] | %223
"^Grandioso\n" !^![gc'e'g']7/2 [ff']/ [=e=ac'=e']7/2 [ff']/ | %224
 !^![=e=ac'=e']7/2 [ff']/ [gc'_e'g']7/2 [ff']/ | !^![fb=d'f']7/2 [ff']/ [bb']7/2 [=a=a']/ | %226
 [aa']7/2 [gg']/ [ff']7/2 [ee']/ | [eae']7/2 [dd']/ [cc']7/2 [dd']/ | %228
 !^![ff']7/2 [ee']/ [=d=d']7/2 e/ | %229
 [ff']2[K:bass] [=D,=D]/[E,E]/ z[K:treble]"^con furia" [B,B]/[A,A]/ z [=A,=A]/[B,B]/ z/ [dd']/ | %230
"^martellato" [Ee]/[Dd]/ z [=D=d]/[Ee]/ z [Bb]/[Aa]/ z [=G=g]/[Aa]/ z | %231
 [gc'e'g']7/2 [ff']/ [=e=ac'=e']7/2 [ff']/ | [=e=ac'=e']7/2 [ff']/ [g_c'_e'g']7/2 [ff']/ | %233
 [fb=d'f']7/2 [ff']/ [bb']7/2 [=a=a']/ | [aa']7/2 [gg']/ [ff']7/2 [ee']/ | %235
 [eae']7/2 [dd']/ [cc']7/2 [dd']/ | [ff']7/2 [ee']/ [gg']7/2 [ff']/ |!sfz! !^![dfad']2 z2 z4 | %238
 E/D/ z D/E/ z B/A/ z =A/B/ z | %239
"^con furia" [Ee]/[Dd]/ z [=D=d]/[Ee]/ z [Bb]/[Aa]/ z [=A=a]/[Bb]/ z | %240
 [ee']/[dd']/ z [=d=d']/[ee']/ z!8va(! [bb']/[aa']/!8va)! z!8va(! [=a=a']/[bb']/!8va)! z | %241
!8va(! [d'd'']2!fff! [d'f'a'd'']2!8va)! D2!8va(! [f'a'd''f'']2!8va)! | z4 [dfad']4 | %243
!8va(! [d'f'a'd'']8!8va)! |] %244
V:3
 z2 z2 z2!ped! [A,,,A,,]2!ped-up! | [D,,,D,,]4 [D,A,]2 [D,A,D]>E | %2
 !arpeggio![D,A,F]6!ped! [B,,E,B,]2!ped-up! | %3
!ped! !arpeggio![A,,F,D]4!ped-up!!ped! !arpeggio![A,,G,D]2!ped-up! !arpeggio![A,,G,C]2 | %4
!ped! [D,,,D,,][A,DF][A,DF][A,DF] [A,DF][A,DF][A,DF][A,DF]!ped-up! | %5
 z [A,DF][A,DF][A,DF] [A,DF][A,DF][A,DF][A,DF] | %6
!ped! z [A,DF][A,DF][A,DF] [A,DF][A,DF][A,DF][A,DF]!ped-up! | %7
!ped! z [B,DF][B,DF][B,DF]!ped-up! [B,DF][B,DF][B,DF][B,DF] | %8
!ped! z [B,DE][B,DE][B,DE]!ped-up! [B,DE][B,DE][B,DE][B,DE] | %9
!ped! z [B,DE][B,DE][B,DE] [B,DE][B,DE][B,DE][B,DE] | %10
 E,,[B,DE=G][B,DEG][B,DEG] [B,DEG][B,DEG][B,DEG][B,DEG]!ped-up! | %11
!ped! z [A,CG][A,CG][A,CG]!ped-up! [A,CG][A,CG][A,CG][A,CG] | %12
 z[K:treble] [=E=GBd][EGBd][EGBd]!ped-up!!ped! [EGBd][EGBd][EGBd][EGBd] | %13
[K:bass]"_(Apassionato)"!ped! z[K:treble] [EF][EF][EF] [EF][EF][EF][EF]!ped-up! | %14
[K:bass]!ped! z[K:treble] [B,=DA][B,DA][B,DA]!ped-up! [B,DA][B,DA][B,DA][B,DA] | %15
[K:bass]!ped! z[K:treble] [B,=DA][B,DA][B,DA]!ped-up! [B,DA][B,DA][B,DA][B,DA] | %16
[K:bass]!ped! z [DE=G][DEG][DEG]!ped-up! [DEG][DEG][DEG][DEG] | %17
!ped! z [DE=G][DEG][DEG]!ped-up! [DEG][DEG][DEG][DEG] | %18
!ped! z[K:treble] [A,CG][A,CG][A,CG]!ped-up! [A,CG][A,CG][A,CG][A,CG] | %19
[K:bass] z[K:treble] [A,CG][A,CG][A,CG] [A,CG][A,CG][A,CG][A,CG] | %20
[K:bass]!ped! z [A,DF][A,DF][A,DF]!ped-up! [A,DF][A,DF][A,DF][A,DF] | %21
[K:bass]!ped! z[K:treble] [EF][EF][EF]!ped-up! [EF][EF][EF][EF] | %22
[K:bass]!ped! z[K:treble] [B,=DA][B,DA][B,DA]!ped-up! [B,DA][B,DA][B,DA][B,DA] | %23
[K:bass] z[K:treble] [B,=DA][B,DA][B,DA] [B,DA][B,DA][B,DA][B,DA] | %24
[K:bass]!ped! z [DE=G][DEG][DEG]!ped-up! [DEG][DEG][DEG][DEG] | %25
!ped! z [DE=G][DEG][DEG]!ped-up! [DEG][DEG][DEG][DEG] | %26
!ped! z[K:treble] [A,CG][A,CG][A,CG]!ped-up! [A,CG][A,CG][A,CG][A,CG] | %27
[K:bass]!ped! z[K:treble]!f! [A,CG][A,CG][A,CG]!ped-up! [A,CG][A,CG][A,CG][A,CG] | %28
[K:bass]!ped! z [A,DF][A,DF][A,DF]!ped-up! [A,DF][A,DF][A,DF][A,DF] | %29
!ped! z [A,^C][=A,C][A,C]!ped-up! [A,C][A,C][A,=E][A,E] | %30
!ped! z [A,D][A,DF][A,DF] [A,DF][A,DF][A,DF][A,DF]!ped-up! | %31
!ped! z [=A,^C][A,C][A,C]!ped-up! [A,C][A,C][A,=E][A,E] | %32
!ped! z [A,D][A,DF][A,DF]!ped-up! [A,DF][A,DF][A,DF][A,DF] | %33
!ped! z [A,D][A,DF][A,DF]!ped-up! [A,DF][A,DF][A,DF][A,DF] | %34
!ped! z [A,D][A,DF][A,DF]!ped-up! [A,DF][A,DF][A,DF][A,DF] | %35
!ped! z [A,D][A,DF][A,DF]!ped-up! [A,DF][A,DF][A,DF][A,DF] | %36
!ped! (6:4:6D,,/A,,/D,/F,/A,/D/[K:treble] (6:4:6F/A/d/f/a/d'/!ped-up! (6:4:6f'/d'/a/f/d/A/[K:bass] (6:4:6F/D/A,/F,/D,/A,,/ | %37
 (6:4:6[D,,D,]/[A,,F,]/[D,A,]/F,/A,/D/[K:treble] (6:4:6F/A/d/f/a/d'/ (6:4:6f'/d'/a/f/d/A/[K:bass] (6:4:6F/D/A,/F,/[D,A,]/[A,,F,]/ | %38
 (6:4:6[D,,D,]/[A,,F,]/[D,A,]/F,/A,/D/[K:treble] (6:4:6F/A/d/f/a/d'/ (6:4:6f'/d'/a/f/d/A/ (6:4:6F/A/d/f/a/d'/ | %39
 (6:4:6f'/d'/a/f/d/A/ (6:4:6F/A/d/f/a/d'/ (6:4:6f'/d'/a/f/d/A/ (6:4:6F/A/d/f/a/d'/ | %40
 (6:4:6f'/d'/a/f/a/d'/ (6:4:6f'/d'/a/f/a/d'/ (6:4:6f'/d'/a/f/a/d'/ (6:4:6f'/d'/a/f/a/d'/ | %41
 (6:4:6f'/d'/a/f/a/d'/ (6:4:6f'/d'/a/f/a/d'/ (6:4:6f'/d'/a/f/d/B/[K:bass] (6:4:6F/D/A,/F,/[D,A,]/[A,,F,]/ | %42
 [D,,D,]8 |!ped! [A,,,A,,]2!ped-up!!<(! A,,/ z/ A,,/ z/ A,,2!<)! [A,,,A,,G,__B,C]2 | %44
!ped! [A,,,A,,_F,A,D]2!<(! A,,/ z/ A,,/ z/ A,,2!<)! [A,,,A,,]2!ped-up! | %45
!ped! [A,,,A,,]2!<(! A,,/ z/ A,,/ z/ A,,2!<)! [A,,,A,,]2!ped-up! | %46
!ped! [A,,,A,,]2!<(! A,,/ z/ A,,/ z/ A,,2!<)! [A,,,A,,]2!ped-up! | %47
!ped! [A,,,A,,]2!<(! A,,/ z/ A,,/ z/ A,,2!<)! [A,,,A,,]2!ped-up! | %48
!ped! [A,,,A,,]2!<(! A,,/ z/ A,,/ z/ A,,2!<)! [A,,,A,,]2!ped-up! | %49
!ped! [A,,,A,,]2!<(! A,,/ z/ A,,/ z/ A,,2!<)! [A,,,A,,]2!ped-up! | %50
!ped! [A,,,A,,]2!<(! A,,/ z/ A,,/ z/ A,,2!<)! [A,,,A,,]2!ped-up! | %51
!ped! !>![A,,,A,,]2[K:treble] [ff']/[=b=d']/ z [Ff]/[=B=d]/ z[K:bass] [F,F]/[=B,=D]/ z!ped-up! | %52
!ped! z2[K:treble] [ff']/[=b=d']/ z [Ff]/[=B=d]/ z[K:bass] [F,F]/[=B,=D]/ z!ped-up! | %53
 z2[K:treble] [ff']/[=b=d']/ z [Ff]/[=B=d]/ z[K:bass] [F,F]/[=B,=D]/ z | %54
 [A,,,A,,A,]2!ped! [A,,A,]2!ped-up!!ped! [=A,,=G,]2!ped-up!!ped! [^F,,^F,]2!ped-up! | %55
!ped! [^D,,^D,]2!ped-up!!ped! [=E,,=E,^G,=B,=D=E]2!ped-up!!ped! [=A,,,=A,,]2!ped-up!!ped! [_A,,,_A,,]2!ped-up! | %56
!p!!ped! [F,D]>C [F,A,D]3/2!ped-up! z/!ped! z/ z/ z3/2!ped-up! z/ z!ped-up! | %57
!ped! [D,,,D,,]2 [D,F,]2 [D,F,]2!ped-up! [C,F,]2 | %58
!ped! [B,,,B,,F,]2!ped-up! [B,,D,F,B,]2 [B,,D,]2!ped! [B,,=D,A,]2!ped-up! | %59
!ped! [E,,,E,,A,D]2 [A,,E,=G,D]2 [A,,E,G,D]2!ped-up!!ped! [B,,E,G,]2!ped-up! | %60
!ped! [E,,,E,,=G,D]2!ped-up! [B,,E,G,D]2!ped! [B,,E,G,D]2!ped-up! [B,,E,B,]2 | %61
!ped! [E,,,E,,]2!ped-up! [E,B,]2 [E,B,]2!ped! [E,D]2!ped-up! | %62
!ped! [A,,,A,,]2!ped-up! [A,E]2!ped! [A,C]2!ped-up! [A,,G,]2 | [D,,,D,,]2 [=G,D]2 [A,D]2 [A,D]2 | %64
!ped! [F,,,F,,]2!ped-up![K:treble] [EF]2 [EF]2 [EF=A]2 | %65
[K:bass]!ped! [B,,,B,,]2!ped-up! [B,=DA]2 [B,DA]2 [B,DA]2 | [B,,,B,,]2 [B,=DA]2 [B,DA]2 [B,DA]2 | %67
!ped! [E,,,E,,]2!ped-up![K:treble] [B,DE=G]2 [B,DEG]2 [B,DEG]2 | %68
[K:bass] [E,,,E,,]2[K:treble] [B,EE=G]2 [B,EEG]2 [B,EEG]2 | %69
[K:bass] z2[K:treble] [A,CG]2 [A,CG]2 [A,CG]2 |[K:bass] z2[K:treble] [A,CG]2 [A,CG]2 [A,CG]2 | %71
[K:bass] z2 [A,DF]2 [A,DF]2 |!<(! (7:4:7A,/ z/ A,/ z/ A,/ z/ z/ | %73
 [D,,D,]2 (7:4:7[F,A,D]/ z/ [F,A,D]/ z/ [F,A,D]/ z/ z/ [F,A,D]2 (7:4:7[A,DF]/ z/ [A,DF]/ z/ [A,DF]/!<)! z/ z/ | %74
!ped! [D,,,D,,]2!ped-up![K:treble] !^![A,DFA]2 z[K:bass] [=G,,=G,]/[A,,A,]/ z/ z/ [=B,,=B,]/[C,D]/ | %75
!ped! z2!ped-up! [F,A,]2!ped! [F,A,D]2!ped-up!!ped! [D,A,D]2!ped-up! | %76
!ped! [A,,,A,,]2 [A,C]4!<(! (7:4:7B,/ z/ B,/ z/ B,/ z/ z/!ped-up! | %77
 [E,,,E,,]2 (7:4:7[G,B,E]/ z/ [G,B,E]/ z/ [G,B,E]/ z/ z/ [G,B,E]2 (7:4:7[B,EG]/ z/ [B,EG]/ z/ [B,EG]/!<)! z/ z/ | %78
!ped! [E,,,E,,]2!ped-up![K:treble] [B,EGB]4!ped! [B,=GBd]2!ped-up! | %79
[K:bass]!ped! [A,,,A,,]>!ped-up![A,CG] [A,CG]>[A,CG] [A,CG]>[A,C] [A,C]>[A,C] | %80
[K:bass]!ped! [D,,D,]2[K:treble] [A,DA]4[K:bass] (7:4:7A,/ z/ A,/ z/ A,/ z/ z/!ped-up! | %81
!ped! z [F,,F,]/[G,,G,]/!ped-up! z [C,C]/[D,D]/ z2 (7:4:7[F,A,D]/ z/ [F,A,D]/ z/ [F,A,D]/ z/ z/ | %82
!ped! z [F,,F,]/[A,,G,]/!ped-up! z [=D,=D]/[E,E]/ z2 (7:4:7[G,B,E]/ z/ [G,B,E]/ z/ [G,B,E]/ z/ z/ | %83
!ped! z [=G,,=G,]/[A,,A,]/!ped-up! z [=E,=E]/[F,F]/ z2 (7:4:7[A,CF]/ z/ [A,CF]/ z/ [A,CF]/ z/ z/ | %84
 [B,,,B,,]2 (7:4:7[B,DG]/ z/ [B,DG]/ z/ [B,DG]/ z/ z/ [C,,C,]2[K:treble] (7:4:7[CEA]/ z/ [CEA]/ z/ [CEA]/ z/ z/ | %85
[K:bass] x2 [F,A,DF]2 [G,,,G,,]2!ped! [=G,,,=G,,]2!ped-up! | %86
!ped! z2[K:treble] [A,DFA]2[K:bass] [A,,,A,,]2[K:treble] [A,EGA]2!ped-up! | %87
[K:bass] !tenuto![D,,,D,,][F,A,DF]!tenuto![D,,,D,,][F,A,DF] !tenuto![D,,,D,,][F,A,DF]!tenuto![D,,,D,,][F,A,DF] | %88
 [D,,,D,,][F,A,DF][D,,,D,,][F,A,DF] [D,,,D,,][F,A,DF][D,,,D,,][F,A,DF] | %89
 [D,,,D,,][F,A,DF][D,,,D,,][F,A,DF] [D,,,D,,][F,A,DF][D,,,D,,][F,A,DF] | %90
 [D,,,D,,][F,A,DF][D,,,D,,][F,A,DF] [D,,,D,,][F,A,DF][D,,,D,,][F,A,DF] | %91
!ped! [A,,,A,,]2!ped-up![K:treble]!>(! [=D=AB=d]/[DABd]/ z [EAce] z!>)![K:bass]!ped! [B,,,B,,]!ped-up![F,B,DF] | %92
!ped! [E,,,E,,]!ped-up![G,B,EG][E,,,E,,][G,B,EG] [E,,,E,,][G,B,EG][E,,,E,,][G,B,EG] | %93
!ped! [E,,,E,,][G,B,EG][E,,,E,,][G,B,EG] [E,,,E,,][G,B,EG][E,,,E,,][G,B,EG]!ped-up! | %94
 [A,,,A,,][G,A,CG][A,,,A,,][G,A,CG] [A,,,A,,][G,A,CG][A,,,A,,][G,A,CG] | %95
 [D,,,D,,]2[K:treble] [=EBd=e]/[EBde]/ z [FAdf] z[K:bass] [D,,,D,,][F,A,DF] | %96
!ped! [F,,,F,,]!ped-up![=A,CF]F,,[A,C=E] F,,[A,CE]F,,[A,CG] | %97
!ped! [B,,,B,,]!ped-up![F,B,=DF][B,,,B,,][F,B,DF] [E,,E,][G,B,EG][G,,,G,,][K:treble][__B,D__B] | %98
[K:bass]!ped! [A,,,A,,]!ped-up![F,A,DF][A,,,A,,][F,A,DF] [A,,,A,,][F,A,F][A,,,A,,][F,A,F] | %99
!ped! [D,,,D,,]2[K:treble]!>(! [=EBd=e]/[EBde]/ z [FAdf]!>)! z[K:bass] [D,,,D,,]!ff![F,A,DF]!ped-up! | %100
!ped! [F,,,F,,]!ped-up![=A,CF]F,,[A,CE] F,,[A,CE]F,,[A,CG] | %101
!ped! [B,,,B,,]!ped-up![F,B,=DF][B,,,B,,][F,B,DF] [E,,E,][G,B,EG][G,,,G,,][K:treble][__B,D__B] | %102
[K:bass]!ped! [A,,,A,,]!ped-up![F,A,DF][A,,,A,,][F,A,DF] [A,,,A,,][F,A,E][A,,,A,,][A,CG] | %103
!ped! [D,,,D,,]2 [F,A,DF]2 [D,,D,]2[K:treble] [FAdf]2 | %104
[K:bass] [D,,,D,,]2[K:treble] !arpeggio!!fermata![FAdf]4 z2!ped-up! |[K:bass]!ped! z8!ped-up! | %106
 D,,[K:treble][fd'][=ec'][fd'] [ad'f']2 [=gd'=e']2 | [ad'f']2 [Adf]2 [A,DF]2 z2 | %108
[K:bass]!ped! [D,,D,]2!ped-up! z2 z4 |[K:treble]!ped! [EG__B]/ z/ z z2 z4!ped-up! | %110
[K:bass]!ped! [A,,,A,,]!ped-up![K:treble]!8va(![d'b'][c'a'][d'b'] [d'b'd'']2 [=d'a'=b']2 | %111
 [f'b'd'']2!8va)! [eac']2!ped! [EAc]2 z2!ped-up! |[K:bass]!ped! [A,,,A,,]2!ped-up! z2 z4 | %113
[K:treble]!ped! [D=GB=e]2!ped-up! z2 z4 | %114
!ped! !tenuto![=A,F=A]2!ped-up! (3=e/e/e/ z"^sopra" (3g/g/g/ z (3e/e/e/ z | %115
!ped! !tenuto![B,FA=d]2!ped-up! (3=a/a/a/ z!ped! !tenuto![EBe]2!ped-up! (3f/f/f/ z | %116
!ped! [A,FA]2!ped-up! (3c/c/c/ z!ped! [A,CGA]2!ped-up! (3=d/d/d/ z | %117
!ped! [D=GB=e]2!ped-up! (3c'/c'/c'/ z (3a/a/a/ z (3f/f/f/ z | %118
 [B,FA]2 (3=e/e/e/ z (3g/g/g/ z (3e/e/e/ z | %119
!ped! [B,A=d]2!ped-up! (3=a/a/a/ z!ped! [EBe]2!ped-up! (3f/f/f/ z | %120
!ped! [A,FA]2!ped-up! (3c/c/c/ z!ped! [A,CGA]2!ped-up!"^sopra" (3e/e/e/ z | %121
!ped! [DFd]2"^sopra" (3a/a/a/ z !>![DFd]2 z2!ped-up! || %122
[K:A][K:bass]!>(!!ped! !trill(!TC,8!ped-up! |!ped! C,8!ped-up! |!ped! C,8!>)!!ped-up! | C,8 | %126
!ped! C,8 | C,8 | C,8!ped-up! |!ped! C,8!ped-up! |!ped! C,8!ped-up! |!ped! C,8!ped-up! | %132
 !trill)!C,2 z2 z z/!ped! ^E,,/ [E,,G,,]>[G,,B,,] | %133
 [G,,B,,]2 [F,,A,,]>!ped-up![^E,,G,,] [E,,G,,]2!ped! [D,,F,,B,,]2!ped-up! | %134
 [C,,G,,]2 [C,,,C,,]2 z z/!ped! ^E,,/ [E,,G,,]>[G,,B,,] | %135
 [G,,B,,]2 [F,,A,,]>!ped-up![^E,,G,,] [E,,G,,]2!ped! [D,,F,,B,,]2!ped-up! | %136
 [C,,G,,]2 [C,,,C,,]2 z2!ped! [C,,,C,,]2!ped-up! | %137
!ped! [F,,,F,,]>[^E,,,^E,,]!ped-up! [F,,,F,,]>[G,,,G,,] [A,,,A,,]>[G,,,G,,] [A,,,A,,]>[B,,,B,,] | %138
!ped! [^B,,,^B,,]2- [B,,,B,,]C,,/[A,,,A,,]/ [F,,,F,,]2!ped-up!!ped! [C,,,C,,]2!ped-up! | %139
!ped! [F,,,F,,]>[^E,,,^E,,] [F,,,F,,]>!ped-up![G,,,G,,]!ped! [A,,,A,,]>[G,,,G,,] [B,,,B,,]>!ped-up![A,,,A,,] | %140
 [G,,,G,,]2 [C,,,C,,]2 z2!ped! [C,,,C,,]2!ped-up! | %141
!ped! [G,,,G,,]>[^^F,,,^^F,,] [G,,,G,,]>!ped-up![A,,,A,,]!ped! [B,,,B,,]>[A,,,A,,] [B,,,B,,]>!ped-up!C,, | %142
 D,,2- D,,!ped![B,,,B,,]/[G,,,G,,]/ [^E,,,^E,,]2!ped-up! [C,,,C,,]2 | %143
 [G,,,G,,]>[^^F,,,^^F,,] [A,,,A,,]>[G,,,G,,] [B,,,B,,]>[^A,,,^A,,] [C,,C,]>[B,,,B,,] | %144
!ped! [A,,,A,,]2!ped-up!"^Preparação" !trill(!TC,6 |!ped! C,8!ped-up! |!ped! C,8!ped-up! | %147
!ped! C,8!ped-up! |!ped! C,8!ped-up! | C,8 | C,8 |!ped! [F,,C,]8!ped-up! |!ped! [F,,C,]8!ped-up! | %153
!ped! [F,,C,]8!ped-up! |!ped! [^E,,C,]8!ped-up! |!ped! [^E,,C,]8!ped-up! |!ped! [^E,,C,]8!ped-up! | %157
!ped! [^E,,C,]8!ped-up! |!ped! [F,,C,]8!ped-up! |!ped! [F,,C,]8!ped-up! | %160
!ped! !trill)!C,2!ped-up! z2 z z/ ^E,,/ [E,,G,,]>[G,,B,,] | %161
 [G,,B,,]2 [F,,A,,]>!ped![^E,,G,,] [E,,G,,]2 [D,,F,,B,,]2!ped-up! | %162
!ped! [C,,G,,]2 [C,,,C,,]2!ped-up! z z/ ^E,,/ [E,,G,,]>[G,,B,,] | %163
!ped! [G,,B,,]2 [F,,A,,]>!ped-up!!ped![^E,,G,,] [E,,G,,]2 [D,,F,,B,,]2!ped-up! | %164
 [^E,,G,,]2 z2 !tenuto![B,,,F,,A,,]2 z2 | !tenuto![C,,^E,,G,,]2 z2 [C,,F,,A,,]2 z2 | %166
!ped! [C,,^E,,G,,]2 C,/4 z/4 C,/4 z/4 C,/4 z/4 C,/4 z/4 C,/4 z/4 C,/4 z/4 C,/4 z/4 C,/4 z/4 C,/4 z/4 C,/4 z/4 C,/4 z/4 C,/4 z/4!ped-up! | %167
 C,/4 z/4 C,/4 z/4 C,/4 z/4 C,/4 z/4 C,/4 z/4 C,/4 z/4 C,/4 z/4 C,/4 z/4 C,/4 z/4 C,/4 z/4 C,/4 z/4 C,/4 z/4 C,/4 z/4 C,/4 z/4 C,/4 z/4 C,/4 z/4 | %168
!ped! C,/4 z/4 C,/4 z/4 C,/4 z/4 C,/4 z/4 C,/4 z/4 C,/4 z/4 C,/4 z/4 C,/4 z/4 C,/4 z/4 C,/4 z/4 C,/4 z/4 C,/4 z/4 C,/4 z/4 C,/4 z/4 C,/4 z/4 C,/4 z/4!ped-up! | %169
!ped! C,/4 z/4 C,/4 z/4 C,/4 z/4 C,/4 z/4 C,/4 z/4 C,/4 z/4 C,/4 z/4 C,/4 z/4 C,/4 z/4 C,/4 z/4 C,/4 z/4 C,/4 z/4 C,/4 z/4 C,/4 z/4 C,/4 z/4 C,/4 z/4!ped-up! | %170
 C,/4 z/4 C,/4 z/4 C,/4 z/4 C,/4 z/4 C,/4 z/4 C,/4 z/4 C,/4 z/4 C,/4 z/4 C,/4 z/4 C,/4 z/4 C,/4 z/4 C,/4 z/4 C,/4 z/4 C,/4 z/4 C,/4 z/4 C,/4 z/4 | %171
 [^E,,C,]/4 z/4 [E,,C,]/4 z/4 [E,,C,]/4 z/4 [E,,C,]/4 z/4 [E,,C,]/4 z/4 [E,,C,]/4 z/4 [E,,D,]/4 z/4 [E,,D,]/4 z/4 [F,,C,]/4 z/4 [F,,C,]/4 z/4 [F,,C,]/4 z/4 [F,,C,]/4 z/4 [F,,C,]/4 z/4 [F,,C,]/4 z/4 [F,,C,]/4 z/4 [F,,C,]/4 z/4 | %172
 [G,,C,]/4 z/4 [G,,C,]/4 z/4 [G,,C,]/4 z/4 [G,,C,]/4 z/4 [G,,C,]/4 z/4 [G,,C,]/4 z/4 [G,,C,]/4 z/4 [G,,C,]/4 z/4 [G,,C,]/4 z/4 [G,,C,]/4 z/4 [G,,C,]/4 z/4 [G,,C,]/4 z/4 [G,,C,]/4 z/4 [G,,C,]/4 z/4 [G,,C,]/4 z/4 [G,,C,]/4 z/4 | %173
 [^E,,C,]/4 z/4 [E,,C,]/4 z/4 [E,,C,]/4 z/4 [E,,C,]/4 z/4 [E,,C,]/4 z/4 [E,,C,]/4 z/4 [E,,C,]/4 z/4 [E,,C,]/4 z/4 [F,,D,]/4 z/4 [F,,D,]/4 z/4 [F,,D,]/4 z/4 [F,,D,]/4 z/4 [F,,D,]/4 z/4 [F,,D,]/4 z/4 [F,,D,]/4 z/4 [F,,D,]/4 z/4 | %174
 [G,,C,]/4 z/4 [G,,C,]/4 z/4 [G,,C,]/4 z/4 [G,,C,]/4 z/4 [G,,C,]/4 z/4 [G,,C,]/4 z/4 [G,,C,]/4 z/4 [G,,C,]/4 z/4 [G,,C,]/4 z/4 [G,,C,]/4 z/4 [G,,C,]/4 z/4 [G,,C,]/4 z/4 [G,,C,]/4 z/4 [G,,C,]/4 z/4 [G,,C,]/4 z/4 [G,,C,]/4 z/4 | %175
 [^E,,C,]/4 z/4 [E,,C,]/4 z/4 [E,,C,]/4 z/4 [E,,C,]/4 z/4 [E,,C,]/4 z/4 [E,,C,]/4 z/4 [E,,C,]/4 z/4 [E,,C,]/4 z/4 [F,,D,]/4 z/4 [F,,D,]/4 z/4 [F,,D,]/4 z/4 [F,,D,]/4 z/4 [F,,D,]/4 z/4 [F,,D,]/4 z/4 [F,,D,]/4 z/4 [F,,D,]/4 z/4 | %176
 [G,,C,]/4 z/4 [G,,C,]/4 z/4 [G,,C,]/4 z/4 [G,,C,]/4 z/4 [G,,C,]/4 z/4 [G,,C,]/4 z/4 [G,,C,]/4 z/4 [G,,C,]/4 z/4 [F,,D,]/4 z/4 [F,,D,]/4 z/4 [F,,D,]/4 z/4 [F,,D,]/4 z/4 [F,,D,]/4 z/4 [F,,D,]/4 z/4 [F,,D,]/4 z/4 [F,,D,]/4 z/4 | %177
 [^E,,C,]/4 z/4 [E,,C,]/4 z/4 [E,,C,]/4 z/4 [E,,C,]/4 z/4 [E,,C,]/4 z/4 [E,,C,]/4 z/4 [E,,C,]/4 z/4 [E,,C,]/4 z/4 [E,,C,]/4 z/4 [E,,C,]/4 z/4 [E,,C,]/4 z/4 [E,,C,]/4 z/4 [E,,C,]/4 z/4 [E,,C,]/4 z/4 [E,,C,]/4 z/4 [E,,C,]/4 z/4 | %178
!ped! [^E,,C,]/!ped-up! z/ z/ z/ z2 z4 || %179
[K:F#]{=F,,,=G,,,=A,,,B,,,} =C,,2 z2{=F,,,G,,,A,,,B,,,} C,,2 z2 | %180
{=F,,,=G,,,=A,,,B,,,} =C,,2{=F,,,G,,,A,,,B,,,} C,,2{=F,,,G,,,A,,,B,,,} C,,2 z2 | %181
{=F,,,=G,,,=A,,,B,,,} =C,,2 z2{=F,,,G,,,A,,,B,,,} C,,2 z2 | %182
{=F,,,=G,,,=A,,,B,,,} =C,,2{=F,,,G,,,A,,,B,,,} C,,2{=F,,,G,,,A,,,B,,,} C,,2 z2 | %183
{=F,,,=G,,,=A,,,B,,,} =C,,2 z2{=F,,,G,,,A,,,B,,,} C,,2 z2 | %184
{=F,,,=G,,,=A,,,B,,,} =C,,2{=F,,,G,,,A,,,B,,,} C,,2{=F,,,G,,,A,,,B,,,} C,,2 z2 | %185
{=F,,,=G,,,=A,,,B,,,} =C,,2 z2{=F,,,G,,,A,,,B,,,} C,,2 z2 | %186
{=F,,,=G,,,=A,,,B,,,} =C,,2{=F,,,G,,,A,,,B,,,} C,,2{=F,,,G,,,A,,,B,,,} C,,2 z2 | %187
{=F,,,=G,,,=A,,,B,,,} =C,,2 z2{=F,,,G,,,A,,,B,,,} C,,2 z2 | %188
{=F,,,=G,,,=A,,,B,,,} =C,,2{=F,,,G,,,A,,,B,,,} C,,2{=F,,,G,,,A,,,B,,,} C,,2 z2 | %189
{=F,,,=G,,,=A,,,B,,,} =C,,2 z2{=F,,,G,,,A,,,B,,,} C,,2 z2 | %190
{=F,,,=G,,,=A,,,B,,,} =C,,2{=F,,,G,,,A,,,B,,,} C,,2{=F,,,G,,,A,,,B,,,} C,,2 z2 | %191
{=F,,,=G,,,=A,,,B,,,} =C,,2 z2{=F,,,G,,,A,,,B,,,} C,,2 z2 | %192
{=F,,,=G,,,=A,,,B,,,} =C,,2{=F,,,G,,,A,,,B,,,} C,,2{=F,,,G,,,A,,,B,,,} C,,2 z2 | %193
{=F,,,=G,,,=A,,,B,,,} =C,,2 z2{=F,,,G,,,A,,,B,,,} C,,2 z2 | %194
{=F,,,=G,,,=A,,,B,,,} =C,,2 z2{=F,,,G,,,A,,,B,,,} C,,2 z2 | %195
{=F,,,=G,,,=A,,,B,,,} =C,,2 z2{=F,,,G,,,A,,,B,,,} C,,2{=F,,,G,,,A,,,B,,,} C,,2 | %196
{=F,,,=G,,,=A,,,B,,,} =C,,2 z2{=F,,,G,,,A,,,B,,,} C,,2 z2 | %197
{=F,,,=G,,,=A,,,B,,,} =C,,2 z2{=F,,,G,,,A,,,B,,,} C,,2{=F,,,G,,,A,,,B,,,} C,,2 | %198
{=F,,,=G,,,=A,,,B,,,} =C,,2 z2{=F,,,G,,,A,,,B,,,} C,,2 z2 | %199
{=F,,,=G,,,=A,,,B,,,} =C,,2 z2{=F,,,G,,,A,,,B,,,} C,,2{=F,,,G,,,A,,,B,,,} C,,2 | %200
{=F,,,=G,,,=A,,,B,,,} =C,,2 z2{=F,,,G,,,A,,,B,,,} C,,2 z2 | %201
{=F,,,=G,,,=A,,,B,,,} =C,,2 z2{=F,,,G,,,A,,,B,,,} C,,2{=F,,,G,,,A,,,B,,,} C,,2 | %202
[K:Db]"_Preparação"!ped! [A,,,C,E,G,A,]2!<(! A,,/ z/ A,,/ z/ A,,2!<)! [A,,,A,,G,__B,C]2!ped-up! | %203
!ped! [A,,,A,,_F,A,D]2!p!!<(! A,,/ z/ A,,/ z/ A,,2!<)! [A,,,A,,]2!ped-up! | %204
!ped! [A,,,A,,]2!<(! A,,/ z/ A,,/ z/ A,,2!<)! [A,,,A,,]2!ped-up! | %205
!ped! [A,,,A,,]2!<(! A,,/ z/ A,,/ z/ A,,2!<)! [A,,,A,,]2!ped-up! | %206
!ped! [A,,,A,,]2!<(! A,,/ z/ A,,/ z/ A,,2!<)! [A,,,A,,]2!ped-up! | %207
!ped! [A,,,A,,]2!<(! A,,/ z/ A,,/ z/ !^!A,,2!<)! [A,,,A,,]2!ped-up! | %208
 !^![A,,,A,,]2!<(! A,,/ z/ A,,/ z/ !^!A,,2!<)! !>![A,,,A,,]2 | %209
 !>![A,,,A,,]2!<(! A,,/ z/ A,,/ z/ !^!A,,2!<)! [A,,,A,,]2 | %210
 [A,,,A,,]2[K:treble]!>(! [ff']/[=b=d']/!>)! z!>(! [Ff]/[=B=d]/!>)! z[K:bass]!>(! [F,F]/[=B,=D]/!>)! z | %211
!ped! z[K:] z [aa']/[=d'=f']/ z [Aa]/[=dg]/ z[K:bass] [F,F]/[=B,=D]/ z!ped-up! | %212
 z2[K:treble] [ff']/[=b=d']/ z [Ff]/[=B=d]/ z[K:bass] [F,F]/[=B,=D]/ z | %213
 !^![A,,,A,,A,]2!ped! [A,,A,]2!ped-up!!ped! [=A,,=G,]2!ped-up!!ped! [^F,,^F,]2!ped-up! | %214
!ped! [^D,,^D,]2!ped-up!!ped! [=E,,=E,^G,=B,=D=E]2!ped-up!!ped! [=A,,,=A,,]2!ped-up!!ped! [_A,,,_A,,]2!ped-up! | %215
!ped! [D,,,D,,][F,A,DF][D,,,D,,][F,A,DF] [D,,,D,,][F,A,DF][D,,,D,,][F,A,DF]!ped-up! | %216
 [D,,,D,,][F,A,DF][D,,,D,,][F,A,DF] [D,,,D,,][F,A,DF][D,,,D,,][F,A,DF] | %217
 [D,,,D,,][F,A,DF][D,,,D,,][F,A,DF] [D,,,D,,][F,A,DF][D,,,D,,][F,A,DF] | %218
!ped! [A,,,A,,]2!ped-up![K:treble]!<(! [=DA=B=d]/[DABd]/ z [EAce] z[K:bass]!ped! [B,,,B,,]!<)!!ped-up![F,B,=DF] | %219
 [E,,,E,,][G,B,EG][E,,,E,,][G,B,EG] [E,,,E,,][G,B,EG][E,,,E,,][G,B,EG] | %220
 [E,,,E,,][G,B,EG][E,,,E,,][G,B,EG] [E,,,E,,][G,B,EG][E,,,E,,][G,B,EG] | %221
 [A,,,A,,][G,A,CG][A,,,A,,][G,A,CG] [A,,,A,,][G,A,CG][A,,,A,,][G,A,CG] | %222
!ped! [D,,,D,,]2[K:treble] [=EBd=e]/[EBde]/ z [FAdf] z [B,,B,][dfbd']!ped-up! | %223
[K:bass] [F,,,F,,]/[=G,,=G,]/[A,,A,]/ z/ z/ [=B,,=B,]/[C,C]/ z/ z/[K:treble] [G,=G]/[A,A]/ z/ z/ [B,=B]/[_Cc]/ z/ | %224
[K:bass] z/ [=G,,=G,]/[A,,A,]/ z [=B,,=B,]/[C,C]/ z[K:treble] [G,=G]/[A,A]/ z [B,=B]/[_Cc]/ z/ | %225
[K:bass] z/ [F,,F,]/[A,,A,]/ z [=A,,=A,]/[B,,B,]/ z[K:treble] [F,F]/[G,G]/ z/ z/ [A,=A]/[B,B]/ z/ | %226
[K:bass] z/ [F,,F,]/[G,,G,]/ z [=A,,=A,]/[B,,B,]/ z[K:treble] [F,F]/[G,G]/ z/ z/ [A,=A]/[B,B]/ z/ | %227
[K:bass]!ped! z/ [=G,,=G,]/[A,,A,]/ z [C,C]/[D,D]/ z[K:treble] [G,=G]/[A,A]/ z [Cc]/[Dd]/ z/ | %228
[K:bass] z/ [=G,,=G,]/[A,,A,]/ z [=B,,=B,]/[C,C]/ z[K:treble] [G,=G]/[A,A]/ z/ z/ [B,=B]/[Cc]/ z/!ped-up! | %229
[K:bass]!ped! z!ped-up! [C,,C,] [D,,D,][=E,,=E,]/[F,,F,]/ z [=G,,=G,]/[A,,A,]/ z [=B,,=B,]/ z/ | %230
!ped! z!ped-up! [C,C]/[D,D]/ z [=E,=E]/[F,F]/ z [F,F]/[G,G]/ z[K:treble] d/[Ff]/ | %231
[K:bass]!ped! [F,,,F,,]/[=G,,=G,]/[A,,A,]/ z [=B,,=B,]/[C,C]/ z/[K:treble] z/ [G,=G]/[A,A]/ z [B,=B]/[Cc]/ z/ | %232
[K:bass] z/ [=G,,=G,]/[A,,A,]/ z [=B,,=B,]/[C,C]/ z/[K:treble] z/ [G,=G]/[A,A]/ z [B,=B]/[Cc]/ z/!ped-up! | %233
[K:bass]!ped! z/ [F,,F,]/[G,,G,]/ z [=A,,=A,]/[B,,B,]/ z/[K:treble] z/ [F,F]/[G,G]/ z [=A,=A]/[B,B]/ z/ | %234
[K:bass] z/ [F,,F,]/[G,,G,]/ z [=A,,=A,]/[B,,B,]/ z/[K:treble] z/ [F,F]/[_A,G]/ z [=A,=A]/[B,B]/ z/!ped-up! | %235
[K:bass]!ped! z/ [=G,,=G,]/[A,,A,]/ z [C,C]/[D,D]/ z/[K:treble] z/ [G,=G]/[A,A]/ z [Cc]/[Dd]/ z/ | %236
[K:bass] z/ [=G,,=G,]/[A,,A,]/ z [=B,,=B,]/[C,C]/ z/[K:treble] z/ [G,=G]/[A,A]/ z [B,=B]/[Cc]/ z/!ped-up! | %237
[K:bass]!ped! !^![D,,D,]!ped-up!!mf![C,,,C,,]/[D,,,D,,]/ [=D,,=D,]/[E,,E,]/[=E,,,=E,,]/[F,,,F,,]/ [B,,B,]/[A,,A,]/[=G,,,=G,,]/[A,,,A,,]/ [=A,,=A,]/[B,,B,]/[=B,,,=B,,]/[C,,C,]/ | %238
 E,/D,/[C,,C,]/[D,,D,]/ =D,/E,/[=E,,=E,]/[F,,F,]/ B,/A,/[=G,,=G,]/[A,,A,]/ =A,/B,/[=B,,=B,]/[C,C]/ | %239
 z [C,C]/[D,D]/ z [=E,=E]/[F,F]/ z [=G,=G]/[A,A]/ z[K:treble] [=B,=B]/[Cc]/ | %240
 z [Cc]/[Dd]/ z [=E=e]/[Ff]/ z [=G=g]/[Aa]/ z [=B=b]/[cc']/ | %241
 z2 [FAdf]2[K:bass] [D,,D,]2[K:treble] [Adfa]2 |[K:bass] [D,,,D,,D,]2 z2 [F,A,DF]4 | [D,,,D,,]8 |] %244
V:4
 x8 | x8 | x8 | x8 | x8 | D,,4 x4 | D,,4 x4 | B,,,4 x4 | E,,4 x4 | E,,4 x4 | x8 | A,,,4 x4 | %12
 D,,4[K:treble] x4 |[K:bass] F,,,4[K:treble] x4 |[K:bass] B,,,4[K:treble] x4 | %15
[K:bass] B,,,4[K:treble] x4 |[K:bass] E,,,4 x4 | E,,,4 x4 | A,,,4[K:treble] x4 | %19
[K:bass] A,,,4[K:treble] x4 |[K:bass] D,,4 x4 |[K:bass] F,,,4[K:treble] x4 | %22
[K:bass] B,,,4[K:treble] x4 |[K:bass] B,,,4[K:treble] x4 |[K:bass] F,,,4 x4 | F,,,4 x4 | %26
 A,,,4[K:treble] x4 |[K:bass] A,,,4[K:treble] x4 |[K:bass] D,,4 x4 | =A,,,4 x4 | D,,4 x4 | %31
 =A,,,4 x4 | D,,4 x4 | D,,4 x4 | D,,4 x4 | D,,4 x4 | x2[K:treble] x4[K:bass] x2 | %37
 x2[K:treble] x4[K:bass] x2 | x2[K:treble] x6 | x8 | x8 | x6[K:bass] x2 | x8 | x8 | x8 | x8 | x8 | %47
 x8 | x8 | x8 | x8 | x2[K:treble] x4[K:bass] x2 | [G,,,G,,G,]8[K:treble][K:bass] | %53
 !^![E,,,E,,E,]8[K:treble][K:bass] | x8 | x8 | [D,,,D,,]2 x2 [F,,A,,D,]2 x2 | x8 | x8 | x8 | x8 | %61
 x8 | x8 | x8 | x2[K:treble] x6 |[K:bass] x8 | x8 | x2[K:treble] x6 |[K:bass] x2[K:treble] x6 | %69
[K:bass] [A,,,A,,]4[K:treble] x4 |[K:bass] [A,,,A,,]4[K:treble] x4 |[K:bass] [D,,,D,,]4 x2 | %72
 x81/40 | x161/20 | x2[K:treble] x3[K:bass] x3 | x8 | x321/40 | x161/20 | x2[K:treble] x6 | %79
[K:bass] x8 |[K:bass] x2[K:treble] x4[K:bass] x2 | [F,,,F,,]2 x6 | [G,,,G,,]2 x6 | [A,,,A,,]2 x6 | %84
 x6[K:treble] x2 |[K:bass] [D,,,D,,]2 x6 | [A,,,A,,]4[K:treble][K:bass] x2[K:treble] x2 | %87
[K:bass] x8 | x8 | x8 | x8 | x2[K:treble] x4[K:bass] x2 | x8 | x8 | x8 | %95
 x2[K:treble] x4[K:bass] x2 | x8 | x7[K:treble] x |[K:bass] x8 | x2[K:treble] x4[K:bass] x2 | x8 | %101
 x7[K:treble] x |[K:bass] x8 | x6[K:treble] x2 |[K:bass] x2[K:treble] x6 |[K:bass] x8 | %106
 x[K:treble] x7 | x8 |[K:bass] x8 |[K:treble] x8 |[K:bass] x[K:treble]!8va(! x7 | x2!8va)! x6 | %112
[K:bass] x8 |[K:treble] x8 | x8 | x8 | x8 | x8 | x8 | x8 | x8 | x8 ||[K:A][K:bass] x8 | x8 | x8 | %125
 x8 | x8 | x8 | x8 | x8 | x8 | x8 | x8 | x8 | x8 | x8 | x8 | x8 | x8 | x8 | x8 | x8 | x8 | x8 | %144
 x8 | x8 | x8 | x8 | x8 | x8 | x8 | x8 | x8 | x8 | x8 | x8 | x8 | x8 | x8 | x8 | x8 | x8 | x8 | %163
 x8 | x8 | x8 | x8 | x8 | x8 | x8 | x8 | x8 | x8 | x8 | x8 | x8 | x8 | x8 | x8 ||[K:F#] x8 | x8 | %181
 x8 | x8 | x8 | x8 | x8 | x8 | x8 | x8 | x8 | x8 | x8 | x8 | x8 | x4 [F,B,=D]2 x2 | %195
 [F,A,C]2 z2 [F,B,=D]2 [F,B,D]2 | [F,A,C]2 z2 [F,B,=D]2 z2 | [F,A,C]2 z2 [F,B,=D]2 [F,B,D]2 | %198
 [F,A,C]2 z2 [F,B,=D]2 z2 | [C,F,A,]2 z2 [^B,,F,G,]2 [B,,F,G,]2 | [C,F,A,]2 z2 [=D,F,B,]2 z2 | %201
 [C,F,A,]2 z2 [C,=E,=G,=A,]2 [C,E,G,A,]2 |[K:Db] x8 | x8 | x8 | x8 | x8 | x8 | x8 | x8 | %210
 x2[K:treble] x4[K:bass] x2 | !^![G,,,G,,G,]8[K:][K:bass] | [E,,,E,,E,]8[K:treble][K:bass] | x8 | %214
 x8 | x8 | x8 | x8 | x2[K:treble] x4[K:bass] x2 | x8 | x8 | x8 | x2[K:treble] x6 | %223
[K:bass] x9/2[K:treble] x7/2 |[K:bass] x9/2[K:treble] x7/2 |[K:bass] x9/2[K:treble] x7/2 | %226
[K:bass] x9/2[K:treble] x7/2 |[K:bass] x9/2[K:treble] x7/2 |[K:bass] x9/2[K:treble] x7/2 | %229
[K:bass] x8 | x7[K:treble] x |[K:bass] x4[K:treble] x4 |[K:bass] x4[K:treble] x4 | %233
[K:bass] x4[K:treble] x4 |[K:bass] x4[K:treble] x4 |[K:bass] x4[K:treble] x4 | %236
[K:bass] x4[K:treble] x4 |[K:bass] x8 | x8 | x7[K:treble] x | x8 | x4[K:bass] x2[K:treble] x2 | %242
[K:bass] x8 | x8 |] %244
V:5
 x8 | x8 | x8 | x8 | x8 | x8 | x8 | x8 | x8 | x8 | x8 |!8va(! x8 | x6!8va)! x2 | x8 | x8 | x8 | %16
 x8 |!8va(! x8 | x15/2!8va)! x/ | x8 | x8 | x8 | x8 | x8 | x8 |!8va(! x8 | x15/2!8va)! x/ | x8 | %28
 x7/2!8va(! x4!8va)! x/ | z (3=E/=A/c/ (3=e/=a/^c'/!8va(!=e'/4=a'/4d''/4=e''/4 =a''!8va)! x3 | %30
 z!p! F/4A/4d/4"^dolce"e/4 f/4a/4d'/4e'/4!8va(!f'/4a'/4d''/4e''/4 f'' x!8va)! x2 | %31
 z (3=E/=A/c/ (3=e/=a/^c'/!8va(!=e'/4=a'/4d''/4=e''/4 =a''!8va)! x3 | %32
 z F/4A/4d/4e/4 f/4a/4d'/4e'/4!8va(!f'/4a'/4d''/4e''/4 f'' x!8va)! x2 | %33
 z F/4A/4d/4e/4 f/4a/4d'/4e'/4!8va(!f'/4a'/4d''/4e''/4 f''!8va)! x3 | %34
 z F/4A/4d/4e/4 f/4a/4d'/4e'/4!8va(!f'/4a'/4d''/4e''/4 f''!8va)! x3 | %35
 z F/4A/4d/4e/4 f/4a/4d'/4e'/4!8va(!f'/4a'/4d''/4e''/4 f''!8va)! x3 | %36
!8va(! x/3!8va)! x3!8va(! x5/3!8va)! x3 | x10/3!8va(! x5/3!8va)! x3 | %38
 x10/3!8va(! x5/3!8va)! x7/3!8va(! x2/3 | x!8va)! x7/3!8va(! x5/3!8va)! x7/3!8va(! x2/3 | x8 | %41
 x5!8va)! x3 | x8 | x2[K:bass] x6 | x6[K:treble] x2 | x2[K:bass] x4[K:treble] x2 | %46
 x2[K:bass] x4[K:treble] x2 | x2[K:bass] x4[K:treble] x2 | x2[K:bass] x4[K:treble] x2 | %49
 x5/2[K:bass] x7/2[K:treble]!8va(! x2 | x2!8va)![K:bass] x4[K:treble]!8va(! x2 | x2!8va)! x6 | %52
 x!8va(! x!8va)! x6 | x!8va(! x!8va)! x6 | x8 | x8 | x8 | [A,D]2 [A,D]2 [A,D]2 A,2 | x8 | x8 | %60
 x6 _D2 | =AB x6 | G2 G2 G2 C2 | x8 | [=Ae]2 A2 A2 _e2 | z2 b4 x2 | =d2 d2 d2!8va(! x2!8va)! | x8 | %68
 x6!8va(! x2 | x15/2!8va)! x/ | x8 | x7/2!8va(! x5/2!8va)! | x81/40 | x161/20 | x8 | x8 | x321/40 | %77
 x161/20 | x8 | x8 | x321/40 | x321/40 | x321/40 | x321/40 | x161/20 | x4 [EBde]2 x2 | %86
 x4!8va(! x2!8va)! x2 | x8 | x8 | x8 | x8 | x8 | x4!8va(! x4!8va)! |!8va(! x4!8va)! x4 | x8 | x8 | %96
 x8 | x2!8va(! x4!8va)! x2 | x8 | x8 | x8 | x2!8va(! x4!8va)! x2 | x8 | %103
 x2!8va(! x2!8va)! x2!8va(! x2!8va)! |[K:bass] x2[K:treble]!8va(! x4!8va)! x2 | x6!8va(! x2 | x8 | %107
 x3!8va)! x5 | x8 | x8 |!8va(! x8 | x4!8va)! x4 | x8 | x8 | x8 | x8 | x8 | x8 | x8 | x8 | x8 | %121
 x4!8va(! x2!8va)! x2 ||[K:A] x8 | x8 |[K:bass] x8 | x8 | x8 |[K:treble] x8 | x11/2[K:bass] x5/2 | %129
 x8 | x8 |[K:treble] x8 | x2[K:bass] x6 | x8 | x8 | x8 | x8 | x8 | x8 | x8 | x8 | x8 | x8 | x8 | %144
 x5[K:treble] x3 | x8 | x11/2[K:bass] x5/2 | x8 | x8 | x8 | x8 | %151
[K:treble] [A,C]2 [A,C]2 [CF]2 [CF]2 | [A,F]2 z2 C2 x2 | [A,C]2 [A,C]2 [CF]2 [CF]2 | x8 | %155
 [B,C]2 [B,C]2 ^E2 E2 | [^EB]2 x6 | [B,C]2 [B,C]2 ^E2 E2 | x2 F2 x4 | [^B,F]2 [B,F]2 B,2 [G,B,]2 | %160
 x2[K:bass] x6 | x8 | x8 | x8 | x8 | x8 | x8 | x8 | x8 | x8 | x8 | x8 | x8 | x8 | x8 | x8 | x8 | %177
 x8 | x8 ||[K:F#][K:treble] [A,C]2 [A,C]2 C2 C2 | [CF]2 [CF]2 z4 | [A,C]2 [A,C]2 [CF]2 [CF]2 | %182
 x2 G4 x2 | [B,C]2 [B,CE]2 E2 E2 | [EG]2 [EG]2 x4 | [B,C]2 C2 E2 E2 | x2 A4 x2 | %187
 [^^CG]2 C2 C2 [CG]2 | x2 [D^^F]2 [DG]2 D2 | [A,C]2 [A,C]2 [B,CE]2 [B,CE]2 | x2 A4 x2 | %191
 [^^CG]2 C2 C2 [C^^G]2 | x2 [D^^F]2 [DG]2 D2 | [A,C]2 [A,C]2 [B,C]2 [B,C]2 | [A,C]2 z2 z4 | x8 | %196
 x8 | x8 | x8 | x8 | x8 | x8 |[K:Db][K:bass] x8 | x6[K:treble] x2 | x2[K:bass] x4[K:treble] x2 | %205
 x2[K:bass] x4[K:treble] x2 | x2[K:bass] x4[K:treble] x2 | x2[K:bass] x4[K:treble] x2 | %208
 x2[K:bass] x4[K:treble]!8va(! x2 | x2!8va)![K:bass] x4[K:treble]!8va(! x2 | x2!8va)! x6 | %211
 x!8va(! x!8va)! x6 | x!8va(! x!8va)! x6 | x8 | x8 | x8 | x8 | x8 | x8 | x4!8va(! x4 | %220
 x4!8va)! x4 | x8 | x8 | x3/2 [=A,=A]/ [B,B]/ x3 [=A=a]/ [Bb]/ z/ z | %224
 x3/2 [=A,=A]/ [B,B]/ x3 [=A=a]/ [Bb]/ z/ z | x3/2 [=G,=G]/ [A,A]/ x3 [G=g]/ [Aa]/ z/ z | %226
 x3/2 [=G,=G]/ [A,A]/ x3 [G=g]/ [Aa]/ z/ z | x3/2 [=A,=A]/ [B,B]/ x3 [A=a]/ [Bb]/ z/ z | %228
 x3/2 [=A,=A]/ [B,B]/ x3 [A=a]/ [Bb]/ z/ z | x2[K:bass] x2[K:treble] x4 | x8 | %231
 z3/2 [=A,=A]/ [B,B]/ x3 [A=a]/ [Bb]/ x3/2 | z3/2 [=A,=A]/ [B,B]/ x3 [A=a]/ [Bb]/ x3/2 | %233
 z3/2 [=G,=G]/ [A,A]/ x3 [G=g]/ [Aa]/ x3/2 | x3/2 [=G,=G]/ [A,A]/ x3 [G=g]/ [Aa]/ x3/2 | %235
 z3/2 [=A,=A]/ [B,B]/ x3 [A=a]/ [Bb]/ x3/2 | z3/2 [=A,=A]/ [B,B]/ x3 [A=a]/ [Bb]/ x3/2 | x8 | x8 | %239
 x8 | x4!8va(! x!8va)! x!8va(! x!8va)! x |!8va(! x4!8va)! x2!8va(! x2!8va)! | x8 | %243
!8va(! x8!8va)! |] %244

